%
N1(DFS,P1129,2565)
N2 ( PART NAME=2FE )
N3 ( MACHINE=L2503 LASER CAT )
N4 ( X SHEET WIDTH=34. )
N5 ( Y SHEET HEIGHT=22. )
N6 ( MATERIAL=Teksoft English Defaults )
N7 ( THICKNESS=.048 )
/N8Q20
N9G801[2122001]
/N10G60X0Y0 (ENTER ZERO OFFSET)
N11G24L12
N12G00X32.633Y20.871
N13Q23
N14 G801[2122001]
N15 Q25
N16G01X32.645
N17X32.669Y20.86
N18X32.681Y20.848
N19X32.693Y20.824
N20Y20.776
N21X32.681Y20.752
N22X32.669Y20.741
N23X32.645Y20.729
N24X32.621
N25X32.598Y20.741
N26X32.562Y20.764
N27X32.443Y20.883
N28Y20.717
N29Q28
N30G00X32.693Y20.491
N31Q23
N32 G801[2122001]
N33 Q25
N34G01X32.443Y20.61
N35Q28
N36G00X32.693Y20.657
N37Q23
N38 G801[2122001]
N39 Q25
N40G01Y20.491
N41Q28
N42G00X32.61Y20.276
N43Q23
N44 G801[2122001]
N45 Q25
N46G01X32.574Y20.288
N47X32.55Y20.312
N48X32.538Y20.348
N49Y20.36
N50X32.55Y20.395
N51X32.574Y20.419
N52X32.61Y20.431
N53X32.621
N54X32.657Y20.419
N55X32.681Y20.395
N56X32.693Y20.36
N57Y20.348
N58X32.681Y20.312
N59X32.657Y20.288
N60X32.61Y20.276
N61X32.55
N62X32.491Y20.288
N63X32.455Y20.312
N64X32.443Y20.348
N65Y20.371
N66X32.455Y20.407
N67X32.479Y20.419
N68Q28
N69G00X32.693Y20.098
N70Q23
N71 G801[2122001]
N72 Q25
N73G01X32.526Y20.217
N74Y20.038
N75Q28
N76G00X32.693Y20.098
N77Q23
N78 G801[2122001]
N79 Q25
N80G01X32.443
N81Q28
N82G00X32.693Y19.725
N83Q23
N84 G801[2122001]
N85 Q25
N86G01X32.443
N87Q28
N88G00X32.693
N89Q23
N90 G801[2122001]
N91 Q25
N92G01Y19.618
N93X32.681Y19.582
N94X32.669Y19.57
N95X32.645Y19.558
N96X32.61
N97X32.586Y19.57
N98X32.574Y19.582
N99X32.562Y19.618
N100Y19.725
N101Q28
N102G00X32.693Y19.498
N103Q23
N104 G801[2122001]
N105 Q25
N106G01X32.443
N107Q28
N108G00X32.693Y19.332
N109Q23
N110 G801[2122001]
N111 Q25
N112G01X32.526Y19.498
N113Q28
N114G00X32.586Y19.439
N115Q23
N116 G801[2122001]
N117 Q25
N118G01X32.443Y19.332
N119Q28
N120G00X32.693Y19.213
N121Q23
N122 G801[2122001]
N123 Q25
N124G01X32.443
N125Q28
N126G00X32.693Y19.296
N127Q23
N128 G801[2122001]
N129 Q25
N130G01Y19.129
N131Q28
N132G00X32.645Y19.034
N133Q23
N134 G801[2122001]
N135 Q25
N136G01X32.657Y19.01
N137X32.693Y18.975
N138X32.443
N139Q28
N140G00X32.633Y18.649
N141Q23
N142 G801[2122001]
N143 Q25
N144G01X32.645
N145X32.669Y18.637
N146X32.681Y18.625
N147X32.693Y18.602
N148Y18.554
N149X32.681Y18.53
N150X32.669Y18.518
N151X32.645Y18.506
N152X32.621
N153X32.598Y18.518
N154X32.562Y18.542
N155X32.443Y18.661
N156Y18.494
N157Q28
N158G00X32.657Y18.268
N159Q23
N160 G801[2122001]
N161 Q25
N162G01X32.681Y18.292
N163X32.693Y18.328
N164Y18.375
N165X32.681Y18.411
N166X32.657Y18.435
N167X32.633
N168X32.61Y18.423
N169X32.598Y18.411
N170X32.586Y18.387
N171X32.562Y18.316
N172X32.55Y18.292
N173X32.538Y18.28
N174X32.514Y18.268
N175X32.479
N176X32.455Y18.292
N177X32.443Y18.328
N178Y18.375
N179X32.455Y18.411
N180X32.479Y18.435
N181Q28
N182G00X32.693Y18.197
N183Q23
N184 G801[2122001]
N185 Q25
N186G01X32.443
N187Q28
N188G00X16.87Y20.155
N189Q23
N190 G801[2122011]
N191 Q24
N192G01Y20.205
N193G801[2122000]
N194X32.205
N195Y1.488
N196X24.552
N197Y1.508
N198Q28
N199G00X24.504
N200Q23
N201 G801[2122011]
N202 Q24
N203G01Y1.488
N204G801[2122000]
N205X16.846
N206X9.189
N207Y1.508
N208Q28
N209G00X9.141
N210Q23
N211 G801[2122011]
N212 Q24
N213G01Y1.488
N214G801[2122000]
N215X1.488
N216Y20.205
N217X16.822
N218Q28
N219G00X33.197Y21.243
N220Q23
N221 G801[2122011]
N222 Q24
N223G01Y21.193
N224G801[2122000]
N225Y.5
N226G02X33.193Y.496I-.004J0
N227G01X.5
N228G02X.496Y.5I0J.004
N229G01Y21.193
N230G02X.5Y21.197I.004J0
N231G01X16.87
N232X33.193
N233G02X33.197Y21.193I0J-.004
N234G01X33.247
N235Q28
/N236Q26
/N237G00X0
N238M30
%
