%
N1(DFS,P1111,1111)
N2 ( PART NAME=2FECOMPLODET )
N3 ( MACHINE=L2503 LASER CAT )
N4 ( X SHEET WIDTH=98. )
N5 ( Y SHEET HEIGHT=55. )
N6 ( MATERIAL=Teksoft English Defaults )
N7 ( THICKNESS=.048 )
/N8Q20
N9G801[2122001]
/N10G60X0Y0 (ENTER ZERO OFFSET)
N11G24L12
N12G00X1.445Y3.327
N13Q23
N14Y8.032
N15Q23
N16Y12.737
N17Q23
N18Y17.442
N19Q23
N20Y22.147
N21Q23
N22Y26.853
N23Q23
N24Y31.558
N25Q23
N26Y36.263
N27Q23
N28Y38.579
N29Q23
N30Y40.968
N31Q23
N32Y45.673
N33Q23
N34X3.327Y47.555
N35Q23
N36X8.066
N37Q23
N38X12.805
N39Q23
N40X17.544
N41Q23
N42X22.283
N43Q23
N44X27.022
N45Q23
N46X31.761
N47Q23
N48X36.5
N49Q23
N50X41.239
N51Q23
N52X45.978
N53Q23
N54X50.717
N55Q23
N56X55.456
N57Q23
N58X60.195
N59Q23
N60X62.579
N61Q23
N62X64.934
N63Q23
N64X69.673
N65Q23
N66X71.555Y45.673
N67Q23
N68Y40.968
N69Q23
N70Y36.263
N71Q23
N72Y31.558
N73Q23
N74Y26.853
N75Q23
N76Y22.147
N77Q23
N78Y17.442
N79Q23
N80Y12.737
N81Q23
N82Y10.421
N83Q23
N84Y8.032
N85Q23
N86Y3.327
N87Q23
N88X69.673Y1.445
N89Q23
N90X64.934
N91Q23
N92X60.195
N93Q23
N94X55.456
N95Q23
N96X50.717
N97Q23
N98X45.978
N99Q23
N100X41.239
N101Q23
N102X36.5
N103Q23
N104X31.761
N105Q23
N106X27.022
N107Q23
N108X22.283
N109Q23
N110X17.544
N111Q23
N112X12.805
N113Q23
N114X10.421
N115Q23
N116X8.066
N117Q23
N118X3.327
N119Q23
N120X72.376Y45.621
N121 G801[2122001]
N122 Q25
N123G01X72.387
N124X72.411Y45.609
N125X72.423Y45.598
N126X72.435Y45.574
N127Y45.526
N128X72.423Y45.502
N129X72.411Y45.49
N130X72.387Y45.478
N131X72.364
N132X72.34Y45.49
N133X72.304Y45.514
N134X72.185Y45.633
N135Y45.467
N136Q28
N137G00X72.435Y45.24
N138 G801[2122001]
N139 Q25
N140G01X72.185Y45.359
N141Q28
N142G00X72.435Y45.407
N143 G801[2122001]
N144 Q25
N145G01Y45.24
N146Q28
N147G00Y45.014
N148 G801[2122001]
N149 Q25
N150G01X72.185Y45.133
N151Q28
N152G00X72.435Y45.181
N153 G801[2122001]
N154 Q25
N155G01Y45.014
N156Q28
N157G00X72.352Y44.8
N158 G801[2122001]
N159 Q25
N160G01X72.316Y44.812
N161X72.292Y44.836
N162X72.28Y44.871
N163Y44.883
N164X72.292Y44.919
N165X72.316Y44.943
N166X72.352Y44.955
N167X72.364
N168X72.399Y44.943
N169X72.423Y44.919
N170X72.435Y44.883
N171Y44.871
N172X72.423Y44.836
N173X72.399Y44.812
N174X72.352Y44.8
N175X72.292
N176X72.233Y44.812
N177X72.197Y44.836
N178X72.185Y44.871
N179Y44.895
N180X72.197Y44.931
N181X72.221Y44.943
N182Q28
N183G00X72.435Y44.486
N184 G801[2122001]
N185 Q25
N186G01X72.185
N187Q28
N188G00X72.435
N189 G801[2122001]
N190 Q25
N191G01Y44.379
N192X72.423Y44.344
N193X72.411Y44.332
N194X72.387Y44.32
N195X72.352
N196X72.328Y44.332
N197X72.316Y44.344
N198X72.304Y44.379
N199Y44.486
N200Q28
N201G00X72.435Y44.26
N202 G801[2122001]
N203 Q25
N204G01X72.185
N205Q28
N206G00X72.435Y44.094
N207 G801[2122001]
N208 Q25
N209G01X72.268Y44.26
N210Q28
N211G00X72.328Y44.201
N212 G801[2122001]
N213 Q25
N214G01X72.185Y44.094
N215Q28
N216G00X72.387Y43.998
N217 G801[2122001]
N218 Q25
N219G01X72.399Y43.974
N220X72.435Y43.939
N221X72.185
N222Q28
N223G00X72.376Y43.613
N224 G801[2122001]
N225 Q25
N226G01X72.387
N227X72.411Y43.601
N228X72.423Y43.59
N229X72.435Y43.566
N230Y43.518
N231X72.423Y43.494
N232X72.411Y43.482
N233X72.387Y43.471
N234X72.364
N235X72.34Y43.482
N236X72.304Y43.506
N237X72.185Y43.625
N238Y43.459
N239Q28
N240G00X72.435Y43.399
N241 G801[2122001]
N242 Q25
N243G01X72.185
N244Q28
N245G00X72.435
N246 G801[2122001]
N247 Q25
N248G01Y43.244
N249Q28
N250G00X72.316Y43.399
N251 G801[2122001]
N252 Q25
N253G01Y43.304
N254Q28
N255G00X72.435Y43.185
N256 G801[2122001]
N257 Q25
N258G01X72.185
N259Q28
N260G00X72.435
N261 G801[2122001]
N262 Q25
N263G01Y43.03
N264Q28
N265G00X72.316Y43.185
N266 G801[2122001]
N267 Q25
N268G01Y43.09
N269Q28
N270G00X72.185Y43.185
N271 G801[2122001]
N272 Q25
N273G01Y43.03
N274Q28
N275G00X36.524Y47.383
N276 G801[2122011]
N277 Q24
N278G01Y47.433
N279G801[2122000]
N280X71.433
N281Y1.567
N282X36.524
N283Y1.587
N284Q28
N285G00X36.476
N286 G801[2122011]
N287 Q24
N288G01Y1.567
N289G801[2122000]
N290X1.567
N291Y47.433
N292X36.476
N293Q28
N294G00X72.504Y48.55
N295 G801[2122011]
N296 Q24
N297G01Y48.5
N298G801[2122000]
N299Y.5
N300G02X72.5Y.496I-.004J0
N301G01X.5
N302G02X.496Y.5I0J.004
N303G01Y48.5
N304G02X.5Y48.504I.004J0
N305G01X36.524
N306X72.5
N307G02X72.504Y48.5I0J-.004
N308G01X72.554
N309Q28
/N310Q26
/N311G00X0
N312M30
%
