%
N1(DFS,P1111,1111)
N2 ( PART NAME=2FETEXT AND BORDER )
N3 ( MACHINE=L2503 LASER CAT )
N4 ( X SHEET WIDTH=98. )
N5 ( Y SHEET HEIGHT=55. )
N6 ( MATERIAL=Teksoft English Defaults )
N7 ( THICKNESS=.048 )
/N8Q20
N9G801[2122001]
/N10G60X0Y0 (ENTER ZERO OFFSET)
N11G24L12
N12G00X72.376Y45.621
N13Q23
N14 G801[2122001]
N15 Q25
N16G01X72.387
N17X72.411Y45.609
N18X72.423Y45.598
N19X72.435Y45.574
N20Y45.526
N21X72.423Y45.502
N22X72.411Y45.49
N23X72.387Y45.478
N24X72.364
N25X72.34Y45.49
N26X72.304Y45.514
N27X72.185Y45.633
N28Y45.467
N29Q28
N30G00X72.435Y45.24
N31Q23
N32 G801[2122001]
N33 Q25
N34G01X72.185Y45.359
N35Q28
N36G00X72.435Y45.407
N37Q23
N38 G801[2122001]
N39 Q25
N40G01Y45.24
N41Q28
N42G00Y45.014
N43Q23
N44 G801[2122001]
N45 Q25
N46G01X72.185Y45.133
N47Q28
N48G00X72.435Y45.181
N49Q23
N50 G801[2122001]
N51 Q25
N52G01Y45.014
N53Q28
N54G00X72.352Y44.8
N55Q23
N56 G801[2122001]
N57 Q25
N58G01X72.316Y44.812
N59X72.292Y44.836
N60X72.28Y44.871
N61Y44.883
N62X72.292Y44.919
N63X72.316Y44.943
N64X72.352Y44.955
N65X72.364
N66X72.399Y44.943
N67X72.423Y44.919
N68X72.435Y44.883
N69Y44.871
N70X72.423Y44.836
N71X72.399Y44.812
N72X72.352Y44.8
N73X72.292
N74X72.233Y44.812
N75X72.197Y44.836
N76X72.185Y44.871
N77Y44.895
N78X72.197Y44.931
N79X72.221Y44.943
N80Q28
N81G00X72.435Y44.486
N82Q23
N83 G801[2122001]
N84 Q25
N85G01X72.185
N86Q28
N87G00X72.435
N88Q23
N89 G801[2122001]
N90 Q25
N91G01Y44.379
N92X72.423Y44.344
N93X72.411Y44.332
N94X72.387Y44.32
N95X72.352
N96X72.328Y44.332
N97X72.316Y44.344
N98X72.304Y44.379
N99Y44.486
N100Q28
N101G00X72.435Y44.26
N102Q23
N103 G801[2122001]
N104 Q25
N105G01X72.185
N106Q28
N107G00X72.435Y44.094
N108Q23
N109 G801[2122001]
N110 Q25
N111G01X72.268Y44.26
N112Q28
N113G00X72.328Y44.201
N114Q23
N115 G801[2122001]
N116 Q25
N117G01X72.185Y44.094
N118Q28
N119G00X72.387Y43.998
N120Q23
N121 G801[2122001]
N122 Q25
N123G01X72.399Y43.974
N124X72.435Y43.939
N125X72.185
N126Q28
N127G00X72.376Y43.613
N128Q23
N129 G801[2122001]
N130 Q25
N131G01X72.387
N132X72.411Y43.601
N133X72.423Y43.59
N134X72.435Y43.566
N135Y43.518
N136X72.423Y43.494
N137X72.411Y43.482
N138X72.387Y43.471
N139X72.364
N140X72.34Y43.482
N141X72.304Y43.506
N142X72.185Y43.625
N143Y43.459
N144Q28
N145G00X72.435Y43.399
N146Q23
N147 G801[2122001]
N148 Q25
N149G01X72.185
N150Q28
N151G00X72.435
N152Q23
N153 G801[2122001]
N154 Q25
N155G01Y43.244
N156Q28
N157G00X72.316Y43.399
N158Q23
N159 G801[2122001]
N160 Q25
N161G01Y43.304
N162Q28
N163G00X72.435Y43.185
N164Q23
N165 G801[2122001]
N166 Q25
N167G01X72.185
N168Q28
N169G00X72.435
N170Q23
N171 G801[2122001]
N172 Q25
N173G01Y43.03
N174Q28
N175G00X72.316Y43.185
N176Q23
N177 G801[2122001]
N178 Q25
N179G01Y43.09
N180Q28
N181G00X72.185Y43.185
N182Q23
N183 G801[2122001]
N184 Q25
N185G01Y43.03
N186Q28
N187G00X36.524Y47.383
N188Q23
N189 G801[2122011]
N190 Q24
N191G01Y47.433
N192G801[2122000]
N193X71.433
N194Y1.567
N195X36.524
N196Y1.587
N197Q28
N198G00X36.476
N199Q23
N200 G801[2122011]
N201 Q24
N202G01Y1.567
N203G801[2122000]
N204X1.567
N205Y47.433
N206X36.476
N207Q28
N208G00X72.504Y48.55
N209Q23
N210 G801[2122011]
N211 Q24
N212G01Y48.5
N213G801[2122000]
N214Y.5
N215G02X72.5Y.496I-.004J0
N216G01X.5
N217G02X.496Y.5I0J.004
N218G01Y48.5
N219G02X.5Y48.504I.004J0
N220G01X36.524
N221X72.5
N222G02X72.504Y48.5I0J-.004
N223G01X72.554
N224Q28
/N225Q26
/N226G00X0
N227M30
%
